icons/general-download-2-filled.svg

<svg viewBox="0 0 24 24"><path fill="currentColor" fill-rule="evenodd" d="M21.6 6a3.6 3.6 0 0 0-3.6-3.6h-12a3.6 3.6 0 0 0-3.6 3.6v12a3.6 3.6 0 0 0 3.6 3.6h12a3.6 3.6 0 0 0 3.6-3.6zm-9.6-1.5a1 1 0 0 1 1 1v5.2l2.6-2.7a1 1 0 0 1 1.4 1.4l-4.3 4.3a1 1 0 0 1-1.4 0l-4.3-4.3a1 1 0 1 1 1.4-1.4l2.6 2.7v-5.2a1 1 0 0 1 1-1Zm-7.5 13.2q0 .8.5 1.3.5.5 1.3.5h11.5q.7 0 1.2-.5.5-.6.5-1.3v-1.7a1 1 0 0 0-.5-.5h-14a1 1 0 0 0-.5.5z" clip-rule="evenodd"/></svg>

<svg viewBox="0 0 24 24"><path fill="currentColor" fill-rule="evenodd" d="M21.6 6A3.6 3.6 0 0 0 18 2.4H6A3.6 3.6 0 0 0 2.4 6v12A3.6 3.6 0 0 0 6 21.6h12a3.6 3.6 0 0 0 3.6-3.6zM12 4.5a1 1 0 0 1 1 1v5.2L15.6 8A1 1 0 0 1 17 9.4l-4.3 4.3a1 1 0 0 1-1.4 0L7 9.4A1 1 0 1 1 8.4 8l2.6 2.7V5.5a1 1 0 0 1 1-1M4.5 17.7q0 .8.5 1.3t1.3.5h11.5q.7 0 1.2-.5t.5-1.3V16l-.5-.5H5l-.5.5z" clip-rule="evenodd"/></svg>
